X: 15625
T: Gobby O, The
R: jig
M: 6/8
K: Aminor
B|:c2A AGA|E2A ABc|B2G GBc|dBG GAB|
c2A AGA|E2A A2e|edc BAG|1 E2A A2B:|2 E2A A2c||
|:A2B c2d|e2f ~g3|e2f g2e|dBG G2E|
A2B c2d|efg a3|edc BAG|1 E2A A2c:|2 E2A A2B||

